images/3234653.svg

<?xml version="1.0" encoding="UTF-8"?>
<svg xmlns="http://www.w3.org/2000/svg" xmlns:xlink="http://www.w3.org/1999/xlink" width="300pt" height="300pt" viewBox="0 0 300 300" version="1.1">
<defs>
<g>
<symbol overflow="visible" id="glyph0-0">
<path style="stroke:none;" d="M 0.453125 1.59375 L 0.453125 -6.34375 L 4.953125 -6.34375 L 4.953125 1.59375 Z M 0.953125 1.09375 L 4.453125 1.09375 L 4.453125 -5.84375 L 0.953125 -5.84375 Z M 0.953125 1.09375 "/>
</symbol>
<symbol overflow="visible" id="glyph0-1">
<path style="stroke:none;" d="M 0.890625 -6.5625 L 2.078125 -6.5625 L 4.984375 -1.078125 L 4.984375 -6.5625 L 5.84375 -6.5625 L 5.84375 0 L 4.65625 0 L 1.75 -5.484375 L 1.75 0 L 0.890625 0 Z M 0.890625 -6.5625 "/>
</symbol>
<symbol overflow="visible" id="glyph0-2">
<path style="stroke:none;" d="M 0.890625 -6.5625 L 1.765625 -6.5625 L 1.765625 -3.875 L 5 -3.875 L 5 -6.5625 L 5.890625 -6.5625 L 5.890625 0 L 5 0 L 5 -3.125 L 1.765625 -3.125 L 1.765625 0 L 0.890625 0 Z M 0.890625 -6.5625 "/>
</symbol>
<symbol overflow="visible" id="glyph0-3">
<path style="stroke:none;" d="M 3.546875 -5.953125 C 2.898438 -5.953125 2.382812 -5.710938 2 -5.234375 C 1.625 -4.753906 1.4375 -4.101562 1.4375 -3.28125 C 1.4375 -2.445312 1.625 -1.789062 2 -1.3125 C 2.382812 -0.832031 2.898438 -0.59375 3.546875 -0.59375 C 4.191406 -0.59375 4.703125 -0.832031 5.078125 -1.3125 C 5.453125 -1.789062 5.640625 -2.445312 5.640625 -3.28125 C 5.640625 -4.101562 5.453125 -4.753906 5.078125 -5.234375 C 4.703125 -5.710938 4.191406 -5.953125 3.546875 -5.953125 Z M 3.546875 -6.6875 C 4.460938 -6.6875 5.195312 -6.375 5.75 -5.75 C 6.300781 -5.132812 6.578125 -4.3125 6.578125 -3.28125 C 6.578125 -2.238281 6.300781 -1.410156 5.75 -0.796875 C 5.195312 -0.179688 4.460938 0.125 3.546875 0.125 C 2.617188 0.125 1.878906 -0.179688 1.328125 -0.796875 C 0.773438 -1.410156 0.5 -2.238281 0.5 -3.28125 C 0.5 -4.3125 0.773438 -5.132812 1.328125 -5.75 C 1.878906 -6.375 2.617188 -6.6875 3.546875 -6.6875 Z M 3.546875 -6.6875 "/>
</symbol>
</g>
</defs>
<g id="surface41621">
<rect x="0" y="0" width="300" height="300" style="fill:rgb(100%,100%,100%);fill-opacity:1;stroke:none;"/>
<path style="fill:none;stroke-width:1.2;stroke-linecap:butt;stroke-linejoin:miter;stroke:rgb(0%,0%,0%);stroke-opacity:1;stroke-miterlimit:10;" d="M 35.25 106.339844 L 56.90625 105.527344 "/>
<path style="fill:none;stroke-width:1.2;stroke-linecap:butt;stroke-linejoin:miter;stroke:rgb(0%,0%,0%);stroke-opacity:1;stroke-miterlimit:10;" d="M 56.90625 105.527344 L 62.671875 114.699219 "/>
<path style="fill:none;stroke-width:1.2;stroke-linecap:butt;stroke-linejoin:miter;stroke:rgb(0%,0%,100%);stroke-opacity:1;stroke-miterlimit:10;" d="M 62.671875 114.699219 L 68.4375 123.875 "/>
<path style="fill:none;stroke-width:1.2;stroke-linecap:butt;stroke-linejoin:miter;stroke:rgb(0%,0%,100%);stroke-opacity:1;stroke-miterlimit:10;" d="M 68.4375 123.875 L 79.265625 123.46875 "/>
<path style="fill:none;stroke-width:1.2;stroke-linecap:butt;stroke-linejoin:miter;stroke:rgb(0%,0%,0%);stroke-opacity:1;stroke-miterlimit:10;" d="M 79.265625 123.46875 L 90.09375 123.058594 "/>
<path style=" stroke:none;fill-rule:nonzero;fill:rgb(100%,100%,100%);fill-opacity:1;" d="M 61.4375 118.375 L 75.4375 118.375 L 75.4375 129.375 L 61.4375 129.375 Z M 61.4375 118.375 "/>
<g style="fill:rgb(0%,0%,100%);fill-opacity:1;">
  <use xlink:href="#glyph0-1" x="61.4375" y="127.038086"/>
  <use xlink:href="#glyph0-2" x="68.415039" y="127.038086"/>
</g>
<path style="fill:none;stroke-width:1.2;stroke-linecap:butt;stroke-linejoin:miter;stroke:rgb(0%,0%,0%);stroke-opacity:1;stroke-miterlimit:10;" d="M 90.09375 123.058594 L 95.15625 113.480469 "/>
<path style="fill:none;stroke-width:1.2;stroke-linecap:butt;stroke-linejoin:miter;stroke:rgb(0%,0%,100%);stroke-opacity:1;stroke-miterlimit:10;" d="M 95.15625 113.480469 L 100.21875 103.898438 "/>
<path style="fill:none;stroke-width:1.2;stroke-linecap:butt;stroke-linejoin:miter;stroke:rgb(0%,0%,0%);stroke-opacity:1;stroke-miterlimit:10;" d="M 95.613281 123.527344 L 99.664062 115.863281 "/>
<path style="fill:none;stroke-width:1.2;stroke-linecap:butt;stroke-linejoin:miter;stroke:rgb(0%,0%,100%);stroke-opacity:1;stroke-miterlimit:10;" d="M 99.664062 115.863281 L 103.714844 108.195312 "/>
<path style="fill:none;stroke-width:1.2;stroke-linecap:butt;stroke-linejoin:miter;stroke:rgb(0%,0%,100%);stroke-opacity:1;stroke-miterlimit:10;" d="M 101.625 141.40625 L 95.859375 132.234375 "/>
<path style="fill:none;stroke-width:1.2;stroke-linecap:butt;stroke-linejoin:miter;stroke:rgb(0%,0%,0%);stroke-opacity:1;stroke-miterlimit:10;" d="M 95.859375 132.234375 L 90.09375 123.058594 "/>
<path style="fill:none;stroke-width:1.2;stroke-linecap:butt;stroke-linejoin:miter;stroke:rgb(0%,0%,100%);stroke-opacity:1;stroke-miterlimit:10;" d="M 100.21875 103.898438 L 111.046875 103.492188 "/>
<path style="fill:none;stroke-width:1.2;stroke-linecap:butt;stroke-linejoin:miter;stroke:rgb(0%,0%,0%);stroke-opacity:1;stroke-miterlimit:10;" d="M 111.046875 103.492188 L 121.875 103.085938 "/>
<path style=" stroke:none;fill-rule:nonzero;fill:rgb(100%,100%,100%);fill-opacity:1;" d="M 97.21875 98.398438 L 104.21875 98.398438 L 104.21875 109.398438 L 97.21875 109.398438 Z M 97.21875 98.398438 "/>
<g style="fill:rgb(0%,0%,100%);fill-opacity:1;">
  <use xlink:href="#glyph0-1" x="97.21875" y="107.061523"/>
</g>
<path style="fill:none;stroke-width:1.2;stroke-linecap:butt;stroke-linejoin:miter;stroke:rgb(0%,0%,0%);stroke-opacity:1;stroke-miterlimit:10;" d="M 121.875 103.085938 L 133.40625 121.433594 "/>
<path style="fill:none;stroke-width:1.2;stroke-linecap:butt;stroke-linejoin:miter;stroke:rgb(0%,0%,0%);stroke-opacity:1;stroke-miterlimit:10;" d="M 118.710938 107.632812 L 127.933594 122.3125 "/>
<path style="fill:none;stroke-width:1.2;stroke-linecap:butt;stroke-linejoin:miter;stroke:rgb(0%,0%,0%);stroke-opacity:1;stroke-miterlimit:10;" d="M 133.40625 121.433594 L 123.28125 140.59375 "/>
<path style="fill:none;stroke-width:1.2;stroke-linecap:butt;stroke-linejoin:miter;stroke:rgb(0%,0%,100%);stroke-opacity:1;stroke-miterlimit:10;" d="M 155.0625 120.617188 L 144.234375 121.027344 "/>
<path style="fill:none;stroke-width:1.2;stroke-linecap:butt;stroke-linejoin:miter;stroke:rgb(0%,0%,0%);stroke-opacity:1;stroke-miterlimit:10;" d="M 144.234375 121.027344 L 133.40625 121.433594 "/>
<path style="fill:none;stroke-width:1.2;stroke-linecap:butt;stroke-linejoin:miter;stroke:rgb(0%,0%,0%);stroke-opacity:1;stroke-miterlimit:10;" d="M 123.28125 140.59375 L 112.453125 141 "/>
<path style="fill:none;stroke-width:1.2;stroke-linecap:butt;stroke-linejoin:miter;stroke:rgb(0%,0%,100%);stroke-opacity:1;stroke-miterlimit:10;" d="M 112.453125 141 L 101.625 141.40625 "/>
<path style="fill:none;stroke-width:1.2;stroke-linecap:butt;stroke-linejoin:miter;stroke:rgb(0%,0%,0%);stroke-opacity:1;stroke-miterlimit:10;" d="M 120.925781 135.578125 L 112.261719 135.90625 "/>
<path style="fill:none;stroke-width:1.2;stroke-linecap:butt;stroke-linejoin:miter;stroke:rgb(0%,0%,100%);stroke-opacity:1;stroke-miterlimit:10;" d="M 112.261719 135.90625 L 103.601562 136.230469 "/>
<path style="fill:none;stroke-width:1.2;stroke-linecap:butt;stroke-linejoin:miter;stroke:rgb(0%,0%,0%);stroke-opacity:1;stroke-miterlimit:10;" d="M 123.28125 140.59375 L 129.046875 149.769531 "/>
<path style="fill:none;stroke-width:1.2;stroke-linecap:butt;stroke-linejoin:miter;stroke:rgb(0%,0%,100%);stroke-opacity:1;stroke-miterlimit:10;" d="M 129.046875 149.769531 L 134.816406 158.941406 "/>
<path style=" stroke:none;fill-rule:nonzero;fill:rgb(100%,100%,100%);fill-opacity:1;" d="M 98.625 135.90625 L 105.625 135.90625 L 105.625 146.90625 L 98.625 146.90625 Z M 98.625 135.90625 "/>
<g style="fill:rgb(0%,0%,100%);fill-opacity:1;">
  <use xlink:href="#glyph0-1" x="98.625" y="144.569336"/>
</g>
<path style="fill:none;stroke-width:1.2;stroke-linecap:butt;stroke-linejoin:miter;stroke:rgb(0%,0%,100%);stroke-opacity:1;stroke-miterlimit:10;" d="M 134.816406 158.941406 L 145.644531 158.535156 "/>
<path style="fill:none;stroke-width:1.2;stroke-linecap:butt;stroke-linejoin:miter;stroke:rgb(0%,0%,0%);stroke-opacity:1;stroke-miterlimit:10;" d="M 145.644531 158.535156 L 156.472656 158.128906 "/>
<path style="fill:none;stroke-width:1.2;stroke-linecap:butt;stroke-linejoin:miter;stroke:rgb(0%,0%,100%);stroke-opacity:1;stroke-miterlimit:10;" d="M 134.816406 158.941406 L 129.753906 168.523438 "/>
<path style="fill:none;stroke-width:1.2;stroke-linecap:butt;stroke-linejoin:miter;stroke:rgb(0%,0%,0%);stroke-opacity:1;stroke-miterlimit:10;" d="M 129.753906 168.523438 L 124.691406 178.101562 "/>
<path style=" stroke:none;fill-rule:nonzero;fill:rgb(100%,100%,100%);fill-opacity:1;" d="M 131.816406 153.441406 L 138.816406 153.441406 L 138.816406 164.441406 L 131.816406 164.441406 Z M 131.816406 153.441406 "/>
<g style="fill:rgb(0%,0%,100%);fill-opacity:1;">
  <use xlink:href="#glyph0-1" x="131.816406" y="162.104492"/>
</g>
<path style="fill:none;stroke-width:1.2;stroke-linecap:butt;stroke-linejoin:miter;stroke:rgb(0%,0%,0%);stroke-opacity:1;stroke-miterlimit:10;" d="M 154.3125 159.484375 L 160.078125 168.660156 "/>
<path style="fill:none;stroke-width:1.2;stroke-linecap:butt;stroke-linejoin:miter;stroke:rgb(100%,0%,0%);stroke-opacity:1;stroke-miterlimit:10;" d="M 160.078125 168.660156 L 165.84375 177.832031 "/>
<path style="fill:none;stroke-width:1.2;stroke-linecap:butt;stroke-linejoin:miter;stroke:rgb(0%,0%,0%);stroke-opacity:1;stroke-miterlimit:10;" d="M 158.628906 156.769531 L 164.394531 165.945312 "/>
<path style="fill:none;stroke-width:1.2;stroke-linecap:butt;stroke-linejoin:miter;stroke:rgb(100%,0%,0%);stroke-opacity:1;stroke-miterlimit:10;" d="M 164.394531 165.945312 L 170.160156 175.117188 "/>
<path style="fill:none;stroke-width:1.2;stroke-linecap:butt;stroke-linejoin:miter;stroke:rgb(0%,0%,0%);stroke-opacity:1;stroke-miterlimit:10;" d="M 156.472656 158.128906 L 166.59375 138.964844 "/>
<path style=" stroke:none;fill-rule:nonzero;fill:rgb(100%,100%,100%);fill-opacity:1;" d="M 164.003906 170.976562 L 172.003906 170.976562 L 172.003906 181.976562 L 164.003906 181.976562 Z M 164.003906 170.976562 "/>
<g style="fill:rgb(100%,0%,0%);fill-opacity:1;">
  <use xlink:href="#glyph0-3" x="164.003906" y="179.639648"/>
</g>
<path style="fill:none;stroke-width:1.2;stroke-linecap:butt;stroke-linejoin:miter;stroke:rgb(0%,0%,0%);stroke-opacity:1;stroke-miterlimit:10;" d="M 166.59375 138.964844 L 160.828125 129.792969 "/>
<path style="fill:none;stroke-width:1.2;stroke-linecap:butt;stroke-linejoin:miter;stroke:rgb(0%,0%,100%);stroke-opacity:1;stroke-miterlimit:10;" d="M 160.828125 129.792969 L 155.0625 120.617188 "/>
<path style="fill:none;stroke-width:1.2;stroke-linecap:butt;stroke-linejoin:miter;stroke:rgb(0%,0%,0%);stroke-opacity:1;stroke-miterlimit:10;" d="M 161.125 139.84375 L 156.511719 132.507812 "/>
<path style="fill:none;stroke-width:1.2;stroke-linecap:butt;stroke-linejoin:miter;stroke:rgb(0%,0%,100%);stroke-opacity:1;stroke-miterlimit:10;" d="M 156.511719 132.507812 L 151.898438 125.167969 "/>
<path style="fill:none;stroke-width:1.2;stroke-linecap:butt;stroke-linejoin:miter;stroke:rgb(0%,0%,0%);stroke-opacity:1;stroke-miterlimit:10;" d="M 166.59375 138.964844 L 188.25 138.152344 "/>
<path style=" stroke:none;fill-rule:nonzero;fill:rgb(100%,100%,100%);fill-opacity:1;" d="M 152.0625 115.117188 L 159.0625 115.117188 L 159.0625 126.117188 L 152.0625 126.117188 Z M 152.0625 115.117188 "/>
<g style="fill:rgb(0%,0%,100%);fill-opacity:1;">
  <use xlink:href="#glyph0-1" x="152.0625" y="123.780273"/>
</g>
<path style="fill:none;stroke-width:1.2;stroke-linecap:butt;stroke-linejoin:miter;stroke:rgb(0%,0%,0%);stroke-opacity:1;stroke-miterlimit:10;" d="M 188.25 138.152344 L 199.78125 156.5 "/>
<path style="fill:none;stroke-width:1.2;stroke-linecap:butt;stroke-linejoin:miter;stroke:rgb(0%,0%,0%);stroke-opacity:1;stroke-miterlimit:10;" d="M 193.71875 137.273438 L 202.945312 151.953125 "/>
<path style="fill:none;stroke-width:1.2;stroke-linecap:butt;stroke-linejoin:miter;stroke:rgb(0%,0%,0%);stroke-opacity:1;stroke-miterlimit:10;" d="M 198.375 118.992188 L 188.25 138.152344 "/>
<path style="fill:none;stroke-width:1.2;stroke-linecap:butt;stroke-linejoin:miter;stroke:rgb(0%,0%,0%);stroke-opacity:1;stroke-miterlimit:10;" d="M 199.78125 156.5 L 221.4375 155.6875 "/>
<path style="fill:none;stroke-width:1.2;stroke-linecap:butt;stroke-linejoin:miter;stroke:rgb(0%,0%,0%);stroke-opacity:1;stroke-miterlimit:10;" d="M 221.4375 155.6875 L 231.5625 136.527344 "/>
<path style="fill:none;stroke-width:1.2;stroke-linecap:butt;stroke-linejoin:miter;stroke:rgb(0%,0%,0%);stroke-opacity:1;stroke-miterlimit:10;" d="M 217.941406 151.390625 L 226.039062 136.058594 "/>
<path style="fill:none;stroke-width:1.2;stroke-linecap:butt;stroke-linejoin:miter;stroke:rgb(0%,0%,0%);stroke-opacity:1;stroke-miterlimit:10;" d="M 231.5625 136.527344 L 220.027344 118.179688 "/>
<path style="fill:none;stroke-width:1.2;stroke-linecap:butt;stroke-linejoin:miter;stroke:rgb(0%,0%,0%);stroke-opacity:1;stroke-miterlimit:10;" d="M 231.5625 136.527344 L 242.390625 136.117188 "/>
<path style="fill:none;stroke-width:1.2;stroke-linecap:butt;stroke-linejoin:miter;stroke:rgb(100%,0%,0%);stroke-opacity:1;stroke-miterlimit:10;" d="M 242.390625 136.117188 L 253.21875 135.710938 "/>
<path style="fill:none;stroke-width:1.2;stroke-linecap:butt;stroke-linejoin:miter;stroke:rgb(0%,0%,0%);stroke-opacity:1;stroke-miterlimit:10;" d="M 220.027344 118.179688 L 198.375 118.992188 "/>
<path style="fill:none;stroke-width:1.2;stroke-linecap:butt;stroke-linejoin:miter;stroke:rgb(0%,0%,0%);stroke-opacity:1;stroke-miterlimit:10;" d="M 218.054688 123.355469 L 200.730469 124.007812 "/>
<path style="fill:none;stroke-width:1.2;stroke-linecap:butt;stroke-linejoin:miter;stroke:rgb(100%,0%,0%);stroke-opacity:1;stroke-miterlimit:10;" d="M 253.21875 135.710938 L 258.984375 144.886719 "/>
<path style="fill:none;stroke-width:1.2;stroke-linecap:butt;stroke-linejoin:miter;stroke:rgb(0%,0%,0%);stroke-opacity:1;stroke-miterlimit:10;" d="M 258.984375 144.886719 L 264.75 154.058594 "/>
<path style=" stroke:none;fill-rule:nonzero;fill:rgb(100%,100%,100%);fill-opacity:1;" d="M 249.21875 130.210938 L 257.21875 130.210938 L 257.21875 141.210938 L 249.21875 141.210938 Z M 249.21875 130.210938 "/>
<g style="fill:rgb(100%,0%,0%);fill-opacity:1;">
  <use xlink:href="#glyph0-3" x="249.21875" y="138.874023"/>
</g>
<path style=" stroke:none;fill-rule:nonzero;fill:rgb(0%,0%,0%);fill-opacity:1;" d="M 103.035156 178.917969 L 124.835938 181.925781 L 124.546875 174.28125 Z M 103.035156 178.917969 "/>
<path style="fill:none;stroke-width:1.2;stroke-linecap:butt;stroke-linejoin:miter;stroke:rgb(0%,0%,0%);stroke-opacity:1;stroke-miterlimit:10;" d="M 103.035156 178.917969 L 90.964844 196.914062 "/>
<path style="fill:none;stroke-width:1.2;stroke-linecap:butt;stroke-linejoin:miter;stroke:rgb(100%,0%,0%);stroke-opacity:1;stroke-miterlimit:10;" d="M 89.648438 161.875 L 96.34375 170.394531 "/>
<path style="fill:none;stroke-width:1.2;stroke-linecap:butt;stroke-linejoin:miter;stroke:rgb(0%,0%,0%);stroke-opacity:1;stroke-miterlimit:10;" d="M 96.34375 170.394531 L 103.035156 178.917969 "/>
<path style="fill:none;stroke-width:1.2;stroke-linecap:butt;stroke-linejoin:miter;stroke:rgb(0%,0%,0%);stroke-opacity:1;stroke-miterlimit:10;" d="M 90.964844 196.914062 L 70.117188 190.996094 "/>
<path style="fill:none;stroke-width:1.2;stroke-linecap:butt;stroke-linejoin:miter;stroke:rgb(0%,0%,0%);stroke-opacity:1;stroke-miterlimit:10;" d="M 70.117188 190.996094 L 69.304688 169.339844 "/>
<path style="fill:none;stroke-width:1.2;stroke-linecap:butt;stroke-linejoin:miter;stroke:rgb(0%,0%,0%);stroke-opacity:1;stroke-miterlimit:10;" d="M 69.304688 169.339844 L 79.476562 165.609375 "/>
<path style="fill:none;stroke-width:1.2;stroke-linecap:butt;stroke-linejoin:miter;stroke:rgb(100%,0%,0%);stroke-opacity:1;stroke-miterlimit:10;" d="M 79.476562 165.609375 L 89.648438 161.875 "/>
<path style=" stroke:none;fill-rule:nonzero;fill:rgb(100%,100%,100%);fill-opacity:1;" d="M 85.648438 156.375 L 93.648438 156.375 L 93.648438 167.375 L 85.648438 167.375 Z M 85.648438 156.375 "/>
<g style="fill:rgb(100%,0%,0%);fill-opacity:1;">
  <use xlink:href="#glyph0-3" x="85.648438" y="165.038086"/>
</g>
</g>
</svg>

<svg xmlns="http://www.w3.org/2000/svg" xmlns:xlink="http://www.w3.org/1999/xlink" width="300pt" height="300pt" viewBox="0 0 300 300"><defs><symbol overflow="visible"><path d="M.453 1.594v-7.938h4.5v7.938zm.5-.5h3.5v-6.938h-3.5zm0 0"/></symbol><symbol overflow="visible" id="a"><path d="M.89-6.563H2.08l2.906 5.485v-5.484h.86V0H4.656L1.75-5.484V0H.89zm0 0"/></symbol><symbol overflow="visible" id="b"><path d="M.89-6.563h.876v2.688H5v-2.688h.89V0H5v-3.125H1.766V0H.89zm0 0"/></symbol><symbol overflow="visible" id="c"><path d="M3.547-5.953c-.65 0-1.164.242-1.547.72-.375.48-.563 1.13-.563 1.952 0 .835.188 1.49.563 1.967.383.48.898.72 1.547.72.644 0 1.156-.24 1.53-.72.376-.476.564-1.132.564-1.968 0-.822-.187-1.474-.562-1.954-.375-.477-.887-.72-1.53-.72zm0-.734c.914 0 1.648.312 2.203.937.55.617.828 1.438.828 2.47 0 1.042-.277 1.87-.828 2.483-.555.617-1.29.922-2.203.922-.93 0-1.668-.305-2.22-.922C.774-1.41.5-2.237.5-3.28c0-1.033.273-1.853.828-2.47.55-.625 1.29-.938 2.22-.938zm0 0"/></symbol></defs><g><path fill="#fff" d="M0 0h300v300H0z"/><path d="M35.25 106.34l21.656-.813M56.906 105.527l5.766 9.172" stroke-width="1.2" stroke="#000" stroke-miterlimit="10" fill="none"/><path d="M62.672 114.7l5.766 9.175M68.438 123.875l10.828-.406" stroke-width="1.2" stroke="#00f" stroke-miterlimit="10" fill="none"/><path d="M79.266 123.47l10.828-.41" stroke-width="1.2" stroke="#000" stroke-miterlimit="10" fill="none"/><path d="M61.438 118.375h14v11h-14zm0 0" fill="#fff"/><g fill="#00f"><use xlink:href="#a" x="61.438" y="127.038"/><use xlink:href="#b" x="68.415" y="127.038"/></g><path d="M90.094 123.06l5.062-9.58" stroke-width="1.2" stroke="#000" stroke-miterlimit="10" fill="none"/><path d="M95.156 113.48l5.063-9.582" stroke-width="1.2" stroke="#00f" stroke-miterlimit="10" fill="none"/><path d="M95.613 123.527l4.05-7.664" stroke-width="1.2" stroke="#000" stroke-miterlimit="10" fill="none"/><path d="M99.664 115.863l4.05-7.668M101.625 141.406l-5.766-9.172" stroke-width="1.2" stroke="#00f" stroke-miterlimit="10" fill="none"/><path d="M95.86 132.234l-5.766-9.175" stroke-width="1.2" stroke="#000" stroke-miterlimit="10" fill="none"/><path d="M100.22 103.898l10.827-.406" stroke-width="1.2" stroke="#00f" stroke-miterlimit="10" fill="none"/><path d="M111.047 103.492l10.828-.406" stroke-width="1.2" stroke="#000" stroke-miterlimit="10" fill="none"/><path d="M97.22 98.398h7v11h-7zm0 0" fill="#fff"/><use xlink:href="#a" x="97.219" y="107.062" fill="#00f"/><path d="M121.875 103.086l11.53 18.348M118.71 107.633l9.224 14.68M133.406 121.434l-10.125 19.16" stroke-width="1.2" stroke="#000" stroke-miterlimit="10" fill="none"/><path d="M155.063 120.617l-10.83.41" stroke-width="1.2" stroke="#00f" stroke-miterlimit="10" fill="none"/><path d="M144.234 121.027l-10.828.407M123.28 140.594l-10.827.406" stroke-width="1.2" stroke="#000" stroke-miterlimit="10" fill="none"/><path d="M112.453 141l-10.828.406" stroke-width="1.2" stroke="#00f" stroke-miterlimit="10" fill="none"/><path d="M120.926 135.578l-8.664.328" stroke-width="1.2" stroke="#000" stroke-miterlimit="10" fill="none"/><path d="M112.262 135.906l-8.66.324" stroke-width="1.2" stroke="#00f" stroke-miterlimit="10" fill="none"/><path d="M123.28 140.594l5.767 9.176" stroke-width="1.2" stroke="#000" stroke-miterlimit="10" fill="none"/><path d="M129.047 149.77l5.77 9.17" stroke-width="1.2" stroke="#00f" stroke-miterlimit="10" fill="none"/><path d="M98.625 135.906h7v11h-7zm0 0" fill="#fff"/><use xlink:href="#a" x="98.625" y="144.569" fill="#00f"/><path d="M134.816 158.94l10.83-.405" stroke-width="1.2" stroke="#00f" stroke-miterlimit="10" fill="none"/><path d="M145.645 158.535l10.828-.406" stroke-width="1.2" stroke="#000" stroke-miterlimit="10" fill="none"/><path d="M134.816 158.94l-5.062 9.583" stroke-width="1.2" stroke="#00f" stroke-miterlimit="10" fill="none"/><path d="M129.754 168.523l-5.063 9.58" stroke-width="1.2" stroke="#000" stroke-miterlimit="10" fill="none"/><path d="M131.816 153.44h7v11h-7zm0 0" fill="#fff"/><use xlink:href="#a" x="131.816" y="162.104" fill="#00f"/><path d="M154.313 159.484l5.765 9.176" stroke-width="1.2" stroke="#000" stroke-miterlimit="10" fill="none"/><path d="M160.078 168.66l5.766 9.172" stroke-width="1.2" stroke="#f00" stroke-miterlimit="10" fill="none"/><path d="M158.63 156.77l5.765 9.175" stroke-width="1.2" stroke="#000" stroke-miterlimit="10" fill="none"/><path d="M164.395 165.945l5.765 9.172" stroke-width="1.2" stroke="#f00" stroke-miterlimit="10" fill="none"/><path d="M156.473 158.13l10.12-19.165" stroke-width="1.2" stroke="#000" stroke-miterlimit="10" fill="none"/><path d="M164.004 170.977h8v11h-8zm0 0" fill="#fff"/><use xlink:href="#c" x="164.004" y="179.64" fill="#f00"/><path d="M166.594 138.965l-5.766-9.172" stroke-width="1.2" stroke="#000" stroke-miterlimit="10" fill="none"/><path d="M160.828 129.793l-5.766-9.176" stroke-width="1.2" stroke="#00f" stroke-miterlimit="10" fill="none"/><path d="M161.125 139.844l-4.613-7.336" stroke-width="1.2" stroke="#000" stroke-miterlimit="10" fill="none"/><path d="M156.512 132.508l-4.614-7.34" stroke-width="1.2" stroke="#00f" stroke-miterlimit="10" fill="none"/><path d="M166.594 138.965l21.656-.813" stroke-width="1.2" stroke="#000" stroke-miterlimit="10" fill="none"/><path d="M152.063 115.117h7v11h-7zm0 0" fill="#fff"/><use xlink:href="#a" x="152.063" y="123.78" fill="#00f"/><path d="M188.25 138.152l11.53 18.348M193.72 137.273l9.225 14.68M198.375 118.992l-10.125 19.16M199.78 156.5l21.657-.813M221.438 155.688l10.125-19.16M217.94 151.39l8.1-15.33M231.563 136.527l-11.536-18.347M231.563 136.527l10.828-.41" stroke-width="1.2" stroke="#000" stroke-miterlimit="10" fill="none"/><path d="M242.39 136.117l10.83-.406" stroke-width="1.2" stroke="#f00" stroke-miterlimit="10" fill="none"/><path d="M220.027 118.18l-21.652.812M218.055 123.355l-17.325.653" stroke-width="1.2" stroke="#000" stroke-miterlimit="10" fill="none"/><path d="M253.22 135.71l5.764 9.177" stroke-width="1.2" stroke="#f00" stroke-miterlimit="10" fill="none"/><path d="M258.984 144.887l5.766 9.172" stroke-width="1.2" stroke="#000" stroke-miterlimit="10" fill="none"/><path d="M249.22 130.21h8v11h-8zm0 0" fill="#fff"/><use xlink:href="#c" x="249.219" y="138.874" fill="#f00"/><path d="M103.035 178.918l21.8 3.008-.288-7.645zm0 0"/><path d="M103.035 178.918l-12.07 17.996" stroke-width="1.2" stroke="#000" stroke-miterlimit="10" fill="none"/><path d="M89.648 161.875l6.696 8.52" stroke-width="1.2" stroke="#f00" stroke-miterlimit="10" fill="none"/><path d="M96.344 170.395l6.69 8.523M90.965 196.914l-20.848-5.918M70.117 190.996l-.812-21.656M69.305 169.34l10.172-3.73" stroke-width="1.2" stroke="#000" stroke-miterlimit="10" fill="none"/><path d="M79.477 165.61l10.17-3.735" stroke-width="1.2" stroke="#f00" stroke-miterlimit="10" fill="none"/><path d="M85.648 156.375h8v11h-8zm0 0" fill="#fff"/><use xlink:href="#c" x="85.648" y="165.038" fill="#f00"/></g></svg>
